**kern	**kern	**dynam
*part1	*part1	*part1
*staff2	*staff1	*
*I"Piano	*	*
*clefF4	*clefG2	*
*k[f#]	*k[f#]	*
*M3/4	*M3/4	*
=1	=1	=1
*	*^	*
2.GG 2.G	2.b	4r	p <
.	.	4B 4d 4g	.
.	.	4B 4d 4g	.
=	=	=	=
2.DD 2.D	2.dd	4r	.
.	.	4d 4g 4b	.
.	.	4d 4g 4b	.
=	=	=	=
*^	*	*	*
4r	2.GGG 2.GG	2.gg	4r	.
4B	.	.	4g 4b	.
4B	.	.	4g 4b	.
*v	*v	*	*	*
*	*v	*v	*
=||	=||	=||
!	!	!LO:DY:a
4B 4d 4g	4b~ 4dd 4gg	[ mp
4A 4c 4f#	4a~ 4cc 4ff#	.
4G 4B 4e	4g~ 4b 4ee	.
=	=	=
!	!LO:TX:a:B:t=Valstakt	!
4AA 4A	2f# 2cc 2dd#X	mf
4A 4c 4d#X	.	.
4A 4c 4e	4f# 4cc 4ee	.
=	=	=
*	*^	*
4DD 4D	8eeL	4a 4cc	.
.	8ggJ	.	.
*	*v	*v	*
4A 4d	4f# 4cc 4ff#	.
4A 4d	4f# 4cc 4ee	.
=	=	=
4GG 4G	2g^ 2a 2cc#X	.
4A#X 4e	.	.
4B 4d	4g 4b 4dd	.
=	=	=
*	*^	*
4EE 4E	2.ee	4g#X^	.
4G#X	.	4fn~	.
4G#	.	4e~	.
=	=	=	=
4AA	2.cc	4e~	.
4A 4c	.	4g#X	.
4A 4c	.	4a	.
=	=	=	=
4DD 4D	8ccL	4f#	.
.	8ddJ	.	.
4d 4f#	4dd	4a 4cc	<
4A 4d	8ff#L	4cc	.
.	8aaJ	.	.
=	=	=	=
4GG 4G	2.bb	4b 4ee	f
4d 4g	.	2b 2dd	[
4d 4g	.	.	.
*	*v	*v	*
=	=	=
*-	*-	*-
!!!system-decoration: {(s1,s2)}
